components/ui-node-icon/src/folderSource/folderSource.large.svg

<svg width="32" height="32" viewBox="0 0 32 32" fill="none" xmlns="http://www.w3.org/2000/svg">
  <path fill-rule="evenodd" clip-rule="evenodd" d="M5 5C3.34315 5 2 6.34315 2 8V22C2 24.2091 3.79086 26 6 26H26C28.2091 26 30 24.2091 30 22V12C30 9.79086 28.2091 8 26 8H17L15.8906 6.3359C15.3342 5.5013 14.3975 5 13.3944 5H5Z" fill="var(--tbl--colors--icons--misc--folder)"/>
  <path d="M2 8C2 6.34315 3.34315 5 5 5H13.3944C14.3975 5 15.3342 5.5013 15.8906 6.3359L17 8H2Z" fill="white" fill-opacity="0.3"/>
</svg>

<svg xmlns="http://www.w3.org/2000/svg" width="32" height="32" fill="none" viewBox="0 0 32 32">
  <path fill="var(--tbl--colors--icons--misc--folder)" fill-rule="evenodd" d="M5 5a3 3 0 0 0-3 3v14a4 4 0 0 0 4 4h20a4 4 0 0 0 4-4V12a4 4 0 0 0-4-4h-9l-1.11-1.664A3 3 0 0 0 13.395 5H5Z" clip-rule="evenodd"/>
  <path fill="#fff" fill-opacity=".3" d="M2 8a3 3 0 0 1 3-3h8.394a3 3 0 0 1 2.497 1.336L17 8H2Z"/>
</svg>
